pk/comments.svg

<svg viewBox="0 0 48 48" fill="none" xmlns="http://www.w3.org/2000/svg" height="1em" width="1em">
  <path d="M33 38H22v-8h14v-8h8v16h-5l-3 3-3-3Z" stroke="#000" stroke-width="4" stroke-linecap="round" stroke-linejoin="round"/>
  <path d="M4 6h32v24H17l-4 4-4-4H4V6Z" fill="#2F88FF" stroke="#000" stroke-width="4" stroke-linecap="round" stroke-linejoin="round"/>
  <path d="M12 22h6m-6-8h12" stroke="#fff" stroke-width="4" stroke-linecap="round"/>
</svg>

<svg viewBox="0 0 48 48" fill="none" xmlns="http://www.w3.org/2000/svg" height="1em" width="1em">
  <path d="M33 38H22V30H36V22H44V38H39L36 41L33 38Z" stroke="black" stroke-width="4" stroke-linecap="round" stroke-linejoin="round"/>
  <path d="M4 6H36V30H17L13 34L9 30H4V6Z" fill="#2F88FF" stroke="black" stroke-width="4" stroke-linecap="round" stroke-linejoin="round"/>
  <path d="M12 22H18" stroke="white" stroke-width="4" stroke-linecap="round"/>
  <path d="M12 14H24" stroke="white" stroke-width="4" stroke-linecap="round"/>
</svg>
